X:281
T:Doudlebska polka
C:Traditional Czech
O:Tjechie
M:2/4
R:Polka
L:1/8
%%MIDI gchord fzczfzcz
S:Colin Hume's website,  colinhume.com  - chords can also be printed below the stave.
Q:1/4=120
K:D
%%center Keep the tempo steady.  Finish with the Polka.
P:A polka
|: "D"AA F2 | BB A2 | AA GF | "A7"G4 |\
"A7"cc B2 | cc B2 |1 "A7"Ad cB | "D"A2 z2 :|2 "A7"AA Bc | "D"d4 |
|: "D"F2 A2 | d2 AF | "A7"G2 A2 | c4 |\
"A7"G2 A2 |1 c2 BA | "D"F2 A2 | dc BA :|2 c2 Bc | "D"d2 d2 | d4 |
P:B Klappen
|: "D"FF FA | dd dF | "A7"GG GA | .c.c .c2 |\
"A7"GG GA | .c.c .c2 |1 "D"FF FA | .d.d .d2 :|2 .A.A.B c | "D".d.d .d2 |]

